X:7
T:Asleys Hornpipe
R:hp 32
S:John Clare (1793-1864)
O:Northampton MS. 12 Deacon 35
Q:1/4=140
Z:P J Headford
M:4/4
L:1/8
Q:1/4=140
K:G
|:GABc edcB|agfed3c|BdBG cecA|BdBG GFED|
GABc edcB|agfed3c|BdBG cecA|G2F2G4:|
|:defg fafd|gbge fafd|defg acc2|BdBG FAFD|
BdBG cecA|fafd gbge|fgfe dcBA|G2F2G4:|]

